svg/pocket.svg

<svg width="284" height="284" viewBox="0 0 284 284" xmlns="http://www.w3.org/2000/svg">
    <path d="M253.828 55.743c0-7.559-6.184-13.743-13.743-13.743H43.743C36.184 42 30 48.184 30 55.743v91.524c0 36.583 49.291 94.547 110.708 94.547 31.692 0 60.774-15.134 81.523-34.958-12.134-12.532-23.953-25.589-37.087-37.993-4.333-3.25-9.397-7.207-14.696-10.449l-16.653 15.908a15.321 15.321 0 0 1-10.606 4.251 15.31 15.31 0 0 1-10.422-4.08l-54.202-50.112c-6.226-5.757-6.607-15.47-.851-21.696 5.757-6.227 15.473-6.604 21.696-.85l43.607 40.317 42.026-40.146c6.133-5.856 15.849-5.636 21.707.497 5.857 6.131 5.634 15.849-.496 21.707l-35.806 34.204c5.299 3.242 10.363 7.199 14.696 10.449 13.134 12.404 24.953 25.461 37.087 37.993 19.463-18.595 31.597-41.315 31.597-59.589V55.743z" fill="#1A1918" fill-rule="evenodd"/>
</svg>

<svg width="284" height="284" viewBox="0 0 284 284" fill="none" xmlns="http://www.w3.org/2000/svg">
<path fill-rule="evenodd" clip-rule="evenodd" d="M253.828 55.743C253.828 48.184 247.644 42 240.085 42H43.743C36.184 42 30 48.184 30 55.743V147.267C30 183.85 79.291 241.814 140.708 241.814C172.4 241.814 201.482 226.68 222.231 206.856C210.097 194.324 198.278 181.267 185.144 168.863C180.811 165.613 175.747 161.656 170.448 158.414L153.795 174.322C150.829 177.153 147.01 178.573 143.189 178.573C139.45 178.573 135.712 177.215 132.767 174.493L78.565 124.381C72.339 118.624 71.958 108.911 77.714 102.685C83.471 96.458 93.187 96.081 99.41 101.835L143.017 142.152L185.043 102.006C191.176 96.15 200.892 96.37 206.75 102.503C212.607 108.634 212.384 118.352 206.254 124.21L170.448 158.414C175.747 161.656 180.811 165.613 185.144 168.863C198.278 181.267 210.097 194.324 222.231 206.856C241.694 188.261 253.828 165.541 253.828 147.267V55.743Z" fill="#1A1919"/>
</svg>
